X: 40220
T: Tintown, The
R: reel
M: 4/4
K: Ddorian
|:DAAG ABcA|G3A GEDC|EAAG ABcA|1 GECE D3C:|2 GECE D3G||
Adde f2ed|cABA GEEG|Adde f2ed|cAGE D3G|
Adde f2ed|cABA GEEG|ABAG ABcA|GECE D3C||

